public/images/logo/mysql.svg

<svg width="147" height="100" viewBox="0 0 147 100" fill="none" xmlns="http://www.w3.org/2000/svg">
<g clip-path="url(#clip0_0_234)">
<path d="M43.7296 65.9877L48.197 80.4539C49.2008 83.7384 49.6194 86.0312 49.4517 87.3381C51.895 80.8075 53.6023 73.6906 54.5735 65.9877H59.9453C57.6352 78.5283 54.5893 87.641 50.8074 93.3258C47.8611 97.7066 44.6334 99.8969 41.1187 99.8969C40.1815 99.8969 39.0262 99.6143 37.6553 99.0533V96.0304C38.3251 96.1284 39.1109 96.1808 40.0147 96.1808C41.6541 96.1804 42.9763 95.7275 43.9814 94.8221C45.1853 93.7192 45.7879 92.4797 45.7879 91.1057C45.7879 90.1676 45.3179 88.2424 44.3822 85.3301L38.1577 65.9877H43.7296ZM9.53863 57.0963L17.7213 82.012H17.7718L26.0046 57.0963H32.731C34.2039 69.4527 35.0739 80.7585 35.3409 91.0063H29.6699C29.4701 81.4269 28.918 72.4183 28.0138 63.9805H27.9645L19.3288 91.0063H15.0101L6.42666 63.9805H6.37612C5.7397 72.0841 5.33813 81.0926 5.17141 91.0063H0C0.334195 78.949 1.17054 67.6467 2.50905 57.0963H9.53863Z" fill="#00758F"/>
<path d="M101.205 56.5931C110.007 56.5931 114.408 62.2052 114.408 73.4238C114.408 79.5201 113.085 84.1249 110.44 87.2358C109.964 87.8043 109.437 88.2954 108.882 88.7504L115.111 91.8241L115.105 91.8238L112.893 95.6352L104.782 90.9118C103.437 91.3091 101.958 91.5077 100.346 91.5077C96.0237 91.5077 92.7954 90.2507 90.661 87.7398C88.3182 84.9622 87.1474 80.5894 87.1474 74.6289C87.1474 68.567 88.4687 63.9797 91.1141 60.8648C93.5235 58.0155 96.8879 56.5931 101.205 56.5931ZM74.2516 56.6421C77.3975 56.6421 80.2579 57.4822 82.8344 59.1564L81.5258 62.0668C79.3211 61.1315 77.1474 60.6619 75.0038 60.6619C73.2645 60.6619 71.9243 61.0797 70.99 61.9203C70.0506 62.7536 69.4695 63.8258 69.4695 65.1329C69.4695 67.1415 70.9033 68.8834 73.5508 70.355C74.4181 70.8282 75.2824 71.3068 76.1436 71.7908L76.3412 71.9017L76.4402 71.9573L76.638 72.0682L76.7368 72.1238L76.9343 72.235C78.9384 73.3625 80.8241 74.4387 80.8241 74.4387C83.4713 76.314 84.7908 78.3135 84.7908 81.6066C84.7908 84.4825 83.7348 86.8433 81.6297 88.6905C79.5232 90.5295 76.6932 91.4516 73.1491 91.4516C69.8344 91.4516 66.6219 90.3903 63.5103 88.2854L64.9659 85.3725C67.6438 86.712 70.067 87.3811 72.243 87.3811C74.2837 87.3811 75.8812 86.9264 77.0368 86.0284C78.1902 85.1238 78.8812 83.8622 78.8812 82.2625C78.8812 80.249 77.4778 78.5278 74.9033 77.084C74.0975 76.6396 73.2941 76.191 72.493 75.7381L72.2958 75.6266C71.9335 75.4224 71.5686 75.2155 71.2111 75.0129L71.0173 74.9029C69.2789 73.916 67.7758 73.0539 67.7758 73.0539C65.2022 71.1751 63.9116 69.1593 63.9116 65.8378C63.9116 63.0908 64.874 60.8705 66.7959 59.1814C68.7226 57.4885 71.2079 56.6421 74.2516 56.6421ZM124.753 57.096V86.8347H135.444V91.006H119.33V57.0963L124.753 57.096ZM141.385 86.8476V87.5524H140.21V91.0023H139.311V87.5524H138.09V86.8476H141.385ZM143.555 86.8476L144.684 89.6797L145.721 86.8476H146.995V91.0023H146.148V87.8404L144.968 91.0023H144.357L143.175 87.8404H143.13V91.0023H142.328V86.8476H143.555ZM100.652 60.7633C95.465 60.7633 92.8701 65.0355 92.8701 73.5742C92.8701 78.4653 93.5577 82.012 94.9304 84.2226C96.2017 86.2685 98.1928 87.2894 100.904 87.2894C106.091 87.2894 108.685 82.9839 108.685 74.3771C108.685 69.5544 107.998 66.0381 106.627 63.8264C105.354 61.7851 103.364 60.7633 100.652 60.7633" fill="#F29111"/>
<path d="M87.0568 2.10114C88.7774 -2.11835 94.7938 1.07707 97.1286 2.55099C97.7008 2.91976 98.3571 3.69884 99.0132 3.98681C100.037 4.02692 101.059 4.10687 102.085 4.14956C104.008 4.60056 105.809 4.96904 107.324 5.83036C114.367 9.96933 118.951 14.1871 123.17 21.1539C124.072 22.6295 124.522 24.2264 125.258 25.8232C126.281 28.2034 127.429 30.702 128.615 32.9527C129.146 34.0198 129.557 35.2063 130.295 36.1074C130.583 36.5195 131.401 36.641 131.89 36.8871C133.241 37.5854 134.879 38.1155 136.15 38.9349C138.525 40.4123 140.82 42.1728 142.907 43.9751C143.685 44.6708 144.215 45.6556 144.956 46.3914V46.7627C144.298 46.9642 143.642 47.1705 142.986 47.3358C141.553 47.7031 140.284 47.6201 138.894 47.9877C138.035 48.2364 136.968 48.5645 136.067 48.6478L136.15 48.7315C136.68 50.243 139.548 51.4722 140.86 52.3762C142.453 53.5235 143.929 54.9149 145.117 56.5129C145.527 56.9206 145.937 57.2917 146.345 57.6983C146.631 58.1103 146.711 58.6433 147 59.0106V59.135C146.68 59.0223 146.45 58.8074 146.232 58.5828L146.102 58.4473C145.972 58.3126 145.841 58.1802 145.691 58.0711C144.788 57.455 143.89 56.718 142.986 56.1453C141.432 55.1613 139.63 54.5903 138.035 53.6026C137.133 53.0292 136.273 52.3762 135.413 51.7201C134.633 51.145 133.775 50.0407 133.285 49.2212C132.997 48.7685 132.957 48.2364 132.627 47.9089C132.686 47.3619 133.188 47.1994 133.695 47.0659L133.812 47.0352C133.987 46.99 134.158 46.9447 134.307 46.8848C136.436 45.9828 138.973 45.6556 142.25 45.7375C142.127 44.9163 140.079 43.8931 139.426 43.4014C138.113 42.4576 136.724 41.4728 135.332 40.6138C134.595 40.1639 133.324 39.8355 132.506 39.4679C131.401 39.0169 128.943 38.5662 128.331 37.7072C127.29 36.353 126.542 34.7378 125.817 33.1063L125.619 32.661L125.421 32.216C124.563 30.2513 123.497 28.2029 122.637 26.1911C122.188 25.2097 121.981 24.3484 121.489 23.4072C118.501 17.6312 114.079 12.7954 108.717 9.39455C106.955 8.28796 104.99 7.26389 102.821 6.5679C101.592 6.19741 100.117 6.40228 98.8076 6.11804H97.9457C97.2101 5.91116 96.596 5.13294 96.0221 4.72263C94.7545 3.8636 93.4849 3.28681 91.9689 2.67391C91.4378 2.42807 89.921 1.85558 89.3916 2.30629C89.0637 2.38853 88.8974 2.51202 88.8168 2.84039C88.4906 3.33036 88.7774 4.06847 88.9804 4.52033C89.5954 5.82979 90.4544 6.60801 91.2342 7.7146C91.9279 8.69598 92.7895 9.80257 93.2813 10.8696C94.3425 13.1633 94.8366 15.7046 95.8199 17.998C96.1846 18.8604 96.7614 19.8418 97.2922 20.6198C97.7421 21.2372 98.5601 21.6837 98.8076 22.4653C99.3009 23.2848 98.0692 25.9888 97.7841 26.8476C96.7174 30.2077 96.9242 34.8785 98.1524 37.7911L98.2179 37.9447L98.2833 38.1003C98.7318 39.167 99.2119 40.3158 100.404 40.614C100.486 40.5327 100.404 40.5754 100.567 40.5327C100.856 38.2782 100.937 36.1072 101.715 34.3433C102.165 33.2404 103.064 32.4607 103.68 31.5604C104.09 31.8057 104.09 32.5453 104.335 33.0347C104.868 34.304 105.44 35.6957 106.097 36.9688C107.445 39.5905 108.962 42.1324 110.681 44.4258C111.257 45.245 112.073 46.1467 112.81 46.8845C113.138 47.1702 113.506 47.3352 113.753 47.7029H113.833V47.8266C112.605 47.3748 111.826 46.1066 110.846 45.3662C109.002 43.9745 106.793 41.8845 105.522 39.8791C104.99 38.7278 104.415 37.6243 103.842 36.4788V36.396C103.597 36.7232 103.68 37.0481 103.557 37.5433C103.025 39.5905 103.435 41.9261 101.592 42.6625C99.5038 43.5249 97.946 41.2708 97.2922 40.2464C95.2032 36.8464 94.631 31.1106 96.1042 26.4805C96.4315 25.4556 96.476 24.2264 97.0473 23.408C96.9239 22.6682 96.3525 22.4659 96.0221 22.0126C95.449 21.2378 94.9583 20.3352 94.5096 19.4748C93.6477 17.794 93.0344 15.7857 92.3801 13.9831C92.0924 13.247 92.01 12.508 91.7232 11.8112C91.2339 10.7476 90.3321 9.68051 89.6365 8.73953C88.6945 7.3871 85.9508 4.76589 87.0568 2.10114ZM100.485 10.1284C100.595 10.2378 100.727 10.3335 100.864 10.4278L101.028 10.5407C101.248 10.6925 101.461 10.8524 101.591 11.0702C101.798 11.3584 101.836 11.643 102.084 11.9318C102.084 12.9166 101.798 13.5713 101.22 13.9794C101.22 13.9794 101.181 14.0223 101.141 14.0625C100.813 13.406 100.527 12.753 100.197 12.0971C99.7909 11.5246 99.217 11.0705 98.8863 10.4163H98.8067V10.3341C99.3009 10.2123 99.7909 10.1284 100.485 10.1284Z" fill="#00758F"/>
</g>
<defs>
<clipPath id="clip0_0_234">
<rect width="147" height="100" fill="white"/>
</clipPath>
</defs>
</svg>

<svg xmlns="http://www.w3.org/2000/svg" width="147" height="100" fill="none"><g clip-path="url(#a)"><path fill="#00758F" d="m43.73 65.988 4.467 14.466c1.004 3.284 1.422 5.577 1.255 6.884 2.443-6.53 4.15-13.647 5.122-21.35h5.371c-2.31 12.54-5.356 21.653-9.138 27.338-2.946 4.38-6.174 6.57-9.688 6.57-.938 0-2.093-.282-3.464-.843V96.03c.67.098 1.456.15 2.36.15 1.64 0 2.961-.453 3.966-1.358 1.204-1.103 1.807-2.342 1.807-3.716 0-.938-.47-2.864-1.406-5.776l-6.224-19.342h5.572ZM9.539 57.096l8.182 24.916h.05l8.234-24.916h6.726c1.473 12.357 2.343 23.663 2.61 33.91H29.67c-.2-9.58-.752-18.588-1.656-27.026h-.05L19.33 91.007H15.01L6.427 63.98h-.05C5.74 72.084 5.337 81.094 5.17 91.007H0c.334-12.057 1.17-23.36 2.509-33.91h7.03Z"/><path fill="#F29111" d="M101.205 56.593c8.802 0 13.203 5.612 13.203 16.83 0 6.097-1.323 10.702-3.968 13.813a11.559 11.559 0 0 1-1.558 1.514l6.229 3.074h-.006l-2.212 3.811-8.111-4.723c-1.345.397-2.824.596-4.436.596-4.322 0-7.55-1.257-9.685-3.768-2.343-2.778-3.514-7.15-3.514-13.111 0-6.062 1.322-10.65 3.967-13.764 2.41-2.85 5.774-4.272 10.091-4.272Zm-26.953.05c3.145 0 6.006.84 8.582 2.513l-1.308 2.91c-2.205-.934-4.379-1.404-6.522-1.404-1.74 0-3.08.418-4.014 1.258-.94.834-1.52 1.906-1.52 3.213 0 2.008 1.433 3.75 4.08 5.222.868.473 1.732.952 2.594 1.436l.197.11.1.056.197.111.099.056.197.111a826.2 826.2 0 0 1 3.89 2.204c2.647 1.875 3.967 3.875 3.967 7.168 0 2.876-1.056 5.236-3.161 7.084-2.107 1.838-4.937 2.76-8.48 2.76-3.316 0-6.528-1.06-9.64-3.166l1.456-2.912c2.678 1.339 5.101 2.008 7.277 2.008 2.04 0 3.638-.455 4.794-1.353 1.153-.904 1.844-2.166 1.844-3.766 0-2.013-1.403-3.734-3.978-5.178-.806-.444-1.609-.893-2.41-1.346l-.197-.111-1.085-.614-.194-.11c-1.738-.987-3.241-1.85-3.241-1.85-2.574-1.878-3.864-3.894-3.864-7.215 0-2.747.962-4.967 2.884-6.657 1.927-1.692 4.412-2.539 7.456-2.539Zm50.501.453v29.739h10.691v4.171H119.33v-33.91h5.423Zm16.632 29.752v.704h-1.175v3.45h-.899v-3.45h-1.221v-.704h3.295Zm2.17 0 1.129 2.832 1.037-2.832h1.274v4.154h-.847V87.84l-1.18 3.162h-.611l-1.182-3.162h-.045v3.162h-.802v-4.154h1.227Zm-42.903-26.085c-5.187 0-7.782 4.273-7.782 12.811 0 4.891.688 8.438 2.06 10.649 1.272 2.046 3.263 3.066 5.974 3.066 5.187 0 7.781-4.305 7.781-12.912 0-4.823-.687-8.339-2.058-10.55-1.273-2.042-3.263-3.064-5.975-3.064"/><path fill="#00758F" d="M87.057 2.101c1.72-4.22 7.737-1.024 10.072.45.572.369 1.228 1.148 1.884 1.436 1.024.04 2.046.12 3.072.163 1.923.45 3.724.819 5.239 1.68 7.043 4.14 11.627 8.357 15.846 15.324.902 1.476 1.352 3.072 2.088 4.67 1.023 2.38 2.171 4.878 3.357 7.129.531 1.067.942 2.253 1.68 3.154.288.413 1.106.534 1.595.78 1.351.698 2.989 1.228 4.26 2.048 2.375 1.477 4.67 3.238 6.757 5.04.778.696 1.308 1.68 2.049 2.416v.372c-.658.201-1.314.407-1.97.573-1.433.367-2.702.284-4.092.652-.859.248-1.926.577-2.827.66l.083.083c.53 1.512 3.398 2.741 4.71 3.645 1.593 1.148 3.069 2.539 4.257 4.137.41.408.82.779 1.228 1.185.286.412.366.945.655 1.313v.124c-.32-.113-.55-.328-.768-.552l-.13-.136a3.201 3.201 0 0 0-.411-.376c-.903-.616-1.801-1.353-2.705-1.926-1.554-.984-3.356-1.555-4.951-2.542-.902-.574-1.762-1.227-2.622-1.883-.78-.575-1.638-1.68-2.128-2.499-.288-.452-.328-.985-.658-1.312.059-.547.561-.71 1.068-.843l.117-.03c.175-.046.346-.091.495-.151 2.129-.902 4.666-1.23 7.943-1.148-.123-.82-2.171-1.844-2.824-2.336-1.313-.943-2.702-1.928-4.094-2.787-.737-.45-2.008-.778-2.826-1.146-1.105-.451-3.563-.902-4.175-1.76-1.041-1.355-1.789-2.97-2.514-4.602l-.198-.445-.198-.445c-.858-1.965-1.924-4.013-2.784-6.025-.449-.981-.656-1.843-1.148-2.784-2.988-5.776-7.41-10.612-12.772-14.012-1.762-1.107-3.727-2.131-5.896-2.827-1.229-.37-2.704-.166-4.013-.45h-.862c-.736-.207-1.35-.985-1.924-1.395-1.268-.86-2.537-1.436-4.053-2.05-.531-.245-2.048-.817-2.577-.367-.328.083-.495.206-.575.534-.326.49-.04 1.228.163 1.68.615 1.31 1.474 2.088 2.254 3.195.694.981 1.556 2.088 2.047 3.155 1.061 2.293 1.556 4.835 2.539 7.128.365.862.941 1.844 1.472 2.622.45.617 1.268 1.064 1.516 1.845.493.82-.739 3.524-1.024 4.383-1.067 3.36-.86 8.03.368 10.943l.066.154.065.155c.449 1.067.929 2.216 2.121 2.514.082-.081 0-.039.163-.081.289-2.255.37-4.426 1.148-6.19.45-1.103 1.349-1.882 1.965-2.783.41.246.41.985.655 1.475.533 1.269 1.105 2.66 1.762 3.934 1.348 2.621 2.865 5.163 4.584 7.457.576.819 1.392 1.72 2.129 2.459.328.285.696.45.943.818h.08v.124c-1.228-.452-2.007-1.72-2.987-2.46-1.844-1.392-4.053-3.482-5.324-5.488-.532-1.151-1.107-2.255-1.68-3.4v-.083c-.245.327-.162.652-.285 1.147-.532 2.047-.122 4.383-1.965 5.12-2.088.862-3.646-1.392-4.3-2.417-2.089-3.4-2.661-9.135-1.188-13.766.328-1.024.372-2.254.943-3.072-.123-.74-.694-.942-1.025-1.395-.573-.775-1.064-1.678-1.512-2.538-.862-1.681-1.476-3.69-2.13-5.492-.288-.736-.37-1.475-.657-2.172-.49-1.063-1.39-2.13-2.087-3.071-.941-1.353-3.685-3.974-2.58-6.639Zm13.428 8.027c.11.11.242.206.379.3l.164.113c.22.152.433.311.563.53.207.287.245.572.493.86 0 .986-.286 1.64-.864 2.048 0 0-.039.043-.079.084-.328-.657-.614-1.31-.944-1.966-.406-.572-.98-1.027-1.31-1.68h-.08v-.083a6.547 6.547 0 0 1 1.678-.206Z"/></g><defs><clipPath id="a"><path fill="#fff" d="M0 0h147v100H0z"/></clipPath></defs></svg>
